build/system/LinkSolid.svg

<svg xmlns="http://www.w3.org/2000/svg" fill="none" viewBox="0 0 24 24" focusable="false"><path d="M0 0H24V24H0z"/><path fill="#74767B" fill-rule="evenodd" d="M3 12C3 7.02944 7.02944 3 12 3C16.9706 3 21 7.02944 21 12C21 16.9706 16.9706 21 12 21C7.02944 21 3 16.9706 3 12ZM14.6452 12.4717C14.3913 12.7256 14.3913 13.1371 14.6452 13.391C14.899 13.6448 15.3106 13.6448 15.5644 13.391L16.2473 12.708C17.6142 11.3412 17.6142 9.12513 16.2473 7.7583C14.8805 6.39146 12.6644 6.39146 11.2976 7.7583L10.6147 8.44123C10.3608 8.69507 10.3608 9.10663 10.6147 9.36047C10.8685 9.61431 11.2801 9.61431 11.5339 9.36046L12.2168 8.67754C13.076 7.81838 14.4689 7.81838 15.3281 8.67753C16.1872 9.53669 16.1872 10.9297 15.3281 11.7888L14.6452 12.4717ZM13.4431 14.5931C13.1893 14.3392 12.7777 14.3392 12.5239 14.5931L11.7832 15.3337C10.924 16.1929 9.53108 16.1929 8.67192 15.3337C7.81277 14.4746 7.81277 13.0816 8.67192 12.2225L9.41259 11.4818C9.66643 11.2279 9.66643 10.8164 9.41259 10.5626C9.15875 10.3087 8.74719 10.3087 8.49335 10.5626L7.75268 11.3032C6.38585 12.6701 6.38585 14.8861 7.75268 16.253C9.11952 17.6198 11.3356 17.6198 12.7024 16.253L13.4431 15.5123C13.6969 15.2585 13.6969 14.8469 13.4431 14.5931ZM13.6057 11.3192C13.8596 11.0653 13.8596 10.6538 13.6057 10.3999C13.3519 10.1461 12.9403 10.1461 12.6865 10.3999L10.4023 12.6841C10.1484 12.938 10.1484 13.3495 10.4023 13.6034C10.6561 13.8572 11.0677 13.8572 11.3215 13.6034L13.6057 11.3192Z"/></svg>

<svg xmlns="http://www.w3.org/2000/svg" fill="none" viewBox="0 0 24 24" focusable="false"><path fill="#74767B" fill-rule="evenodd" d="M3 12c0-4.98 4.02-9 9-9 4.97 0 9 4.02 9 9a9 9 0 0 1-9 9c-4.98 0-9-4.03-9-9m11.64.47c-.25.25-.25.66 0 .92.25.25.67.25.92 0l.68-.69a3.495 3.495 0 0 0 0-4.95 3.513 3.513 0 0 0-4.95 0l-.68.69c-.25.25-.25.66 0 .92.25.25.67.25.92 0l.68-.69c.86-.86 2.25-.86 3.11 0s.86 2.25 0 3.11zm-1.2 2.12a.64.64 0 0 0-.92 0l-.74.74c-.86.86-2.25.86-3.11 0s-.86-2.25 0-3.11l.74-.74c.25-.26.25-.67 0-.92a.64.64 0 0 0-.92 0l-.74.74a3.495 3.495 0 0 0 0 4.95 3.513 3.513 0 0 0 4.95 0l.74-.74c.25-.26.25-.67 0-.92m.16-3.28c.25-.25.25-.66 0-.91a.64.64 0 0 0-.92 0l-2.28 2.28a.64.64 0 0 0 0 .92c.25.25.66.25.92 0z"/></svg>
